X: 543
T: Lady Busy's Reel
%R: reel
Z: 2018 John Chambers <jc:trillian.mit.edu>
B: John Treat - "Gamut for the Fifes", 1779, p.54 #3
F: https://archive.org/details/GamutFortheFifes
N: The rhythm of repeats isn't correct; not fixed.
M: 2/4
L: 1/16
K: G
% - - - - - - - - - - - - - - - - - - - - - - - - -
D2 |\
DGBG dGBG | DGBG FGA2 | DGBG dGBG | Bedc BGG2 ::
g2ag fedc | Bdeg f2d2 | gbag fedc | Bedc BGG2 |]
% - - - - - - - - - - - - - - - - - - - - - - - - -

%%sep 1 1 500
%%sep 1 1 500

